Assets/pieces/Dominator_Black.svg

<svg xmlns="http://www.w3.org/2000/svg" viewBox="0 0 80.25 119.84"><defs><style>.cls-1{fill:#fff;stroke:#000;}</style></defs><title>Dominator_Black</title><g id="Слой_2" data-name="Слой 2"><g id="Слой_1-2" data-name="Слой 1"><path d="M66.67,115.87C63.86,117.78,61.150000000000006,117.66000000000001,58.11,116.48A108.91,108.91,0,0,0,44.4,112A16.7,16.7,0,0,0,36.21,111.93C29.060000000000002,113.93,22.07,116.55000000000001,14.11,119.22000000000001L13,109.89C11,109.89,8.719999999999999,109.73,6.52,109.89C0.8799999999999999,110.36,-0.6100000000000003,108.57000000000001,1.4099999999999993,103.45Q11,79,20.7,54.51C21.37,52.809999999999995,21.89,51.05,22.46,49.32C24.03,44.52,23.7,43.38,19.87,40.32C12.770000000000001,34.61,12.760000000000002,34.59,20.1,29.47C22,28.12,24,27,26.76,25.34C25.76,20.52,24.630000000000003,15.39,23.5,10.26C23.32,9.45,23.01,8.68,22.77,7.88C20.77,1.2800000000000002,21.439999999999998,0.45999999999999996,28.45,0.5C36.12,0.5,43.78,0.5,51.45,0.5C57.45,0.5,58.24,1.5,56.71,7.2C55.58,11.36,54.43,15.510000000000002,53.46,19.71A47,47,0,0,0,52.81,25.380000000000003C56.61,27.840000000000003,60.07,30.060000000000002,63.52,32.31C65.81,33.800000000000004,65.69,35.440000000000005,63.730000000000004,37.120000000000005C63.230000000000004,37.550000000000004,62.64,37.89000000000001,62.120000000000005,38.300000000000004C55.760000000000005,43.300000000000004,55.63,43.89,58.7,51.74Q68.87,77.74000000000001,78.98,103.66C80.86,108.49,79.34,110.31,74.12,110.03999999999999C71.88000000000001,109.92999999999999,69.63000000000001,110.03999999999999,67.19,110.03999999999999ZM61.84,114.33C61.28,110.39,61.06,107.46,60.440000000000005,104.62C58.52,95.87,56.440000000000005,87.17,54.440000000000005,78.44C52.00000000000001,67.77,49.650000000000006,57.06999999999999,47.09,46.44C46.81,45.28,45.370000000000005,44.44,44.470000000000006,43.44C43.800000000000004,44.64,42.760000000000005,45.78,42.540000000000006,47.059999999999995A42.22,42.22,0,0,0,42.36000000000001,53.529999999999994Q42.14000000000001,77.97,41.910000000000004,102.39999999999999C41.910000000000004,104.60999999999999,41.690000000000005,106.97,44.18000000000001,107.94C49.68,110,55.25,111.94,61.84,114.33ZM38.67,43.54L36.410000000000004,43.24C32.410000000000004,54.650000000000006,30.17,66.56,27.070000000000004,78.24000000000001S20.610000000000003,101.52000000000001,18.590000000000003,114.30000000000001C24.900000000000002,112.07000000000001,30.180000000000003,110.19000000000001,35.47,108.30000000000001C38.33,107.30000000000001,38.879999999999995,105.17000000000002,38.9,102.41000000000001C39.01,84.41000000000001,39.26,66.51000000000002,39.4,48.57000000000001A33.72,33.72,0,0,0,38.67,43.54ZM4.76,105.44C14.23,108.28,16.490000000000002,106.92,18.619999999999997,98.44C22.47,83,26.54,67.57,30.47,52.15C31.169999999999998,49.379999999999995,31.58,46.53,32.16,43.55C28.4,43.05,27.869999999999997,45.18,27.069999999999997,47.22C20.069999999999997,65.12,13.069999999999997,83,6.069999999999997,100.9C5.51,102.37,5.19,103.93,4.76,105.44ZM25.44,4.34C27.44,12.25,29.36,19.5,31.28,26.9H39.89C47.89,26.9,48.03,26.9,50.15,19.299999999999997C51.46,14.579999999999998,52.43,9.779999999999998,53.71,4.299999999999997ZM52.05,44L50.51,44.32A47.85,47.85,0,0,0,51.11,49.83C52.74,57.28,54.5,64.71,56.2,72.15C58.540000000000006,82.33000000000001,60.790000000000006,92.53,63.28,102.68C63.62,104,65,106,66.1,106.16C69.1,106.64,72.1,106.28,76.36999999999999,106.25C68,84.67,60,64.32,52.05,44ZM28.3,39.5H51.38C49.190000000000005,30.5,48.38,29.98,36.24,30.25C31.41,30.35,29.7,32.26,28.3,39.5ZM23.25,39.13L28.2,30.64C23.4,29.82,21.4,32.51,18.78,34.9ZM60.32,35.82L60.13,34.410000000000004C57.800000000000004,32.75000000000001,56.13,29.640000000000004,51.410000000000004,31.110000000000003C53.050000000000004,33.580000000000005,54.190000000000005,35.92,55.96,37.6C56.43,38,58.81,36.47,60.32,35.82Z" fill="#fff" stroke="#000" /><path d="M61.84,114.33C55.25,111.94,49.68000000000001,110.02,44.18000000000001,107.88C41.690000000000005,106.88,41.89000000000001,104.55,41.910000000000004,102.33999999999999Q42.17,77.91,42.36000000000001,53.46999999999999A42.22,42.22,0,0,1,42.54,47C42.76,45.72,43.8,44.58,44.47,43.38C45.37,44.38,46.81,45.27,47.089999999999996,46.38C49.65,57.02,52,67.72,54.44,78.38C56.44,87.11,58.519999999999996,95.81,60.44,104.56C61.06,107.46,61.28,110.39,61.84,114.33Z"/><path d="M38.67,43.54A33.72,33.72,0,0,1,39.4,48.6C39.26,66.54,39.01,84.49000000000001,38.9,102.44C38.9,105.2,38.33,107.33,35.47,108.33C30.18,110.17999999999999,24.9,112.06,18.59,114.33C20.59,101.55,23.97,89.94,27.07,78.27S32.44,54.69,36.41,43.269999999999996Z"/><path d="M4.76,105.44C5.1899999999999995,103.92999999999999,5.51,102.37,6.08,100.89999999999999C13.08,83,20.08,65.11999999999999,27.08,47.21999999999999C27.88,45.21999999999999,28.409999999999997,43.04999999999999,32.17,43.54999999999999C31.590000000000003,46.54999999999999,31.17,49.37999999999999,30.48,52.14999999999999C26.55,67.57,22.48,82.96,18.630000000000003,98.38999999999999C16.49,106.92,14.23,108.28,4.76,105.44Z"/><path d="M25.44,4.34H53.71C52.43,9.780000000000001,51.46,14.58,50.15,19.34C48.03,26.96,47.94,26.939999999999998,39.89,26.939999999999998H31.28C29.36,19.5,27.49,12.25,25.44,4.34Z"/><path d="M52.05,44C60,64.32,68,84.67,76.37,106.25C72.13000000000001,106.25,69.05000000000001,106.64,66.10000000000001,106.16C65,106,63.62,104,63.28,102.64C60.79,92.49,58.54,82.28999999999999,56.2,72.11C54.5,64.67,52.74,57.24,51.11,49.79A47.85,47.85,0,0,1,50.51,44.28Z"/><path d="M28.3,39.5C29.7,32.26,31.41,30.35,36.24,30.25C48.35,29.98,49.19,30.47,51.38,39.5Z"/><path d="M23.25,39.13L18.78,34.9C21.400000000000002,32.51,23.400000000000002,29.82,28.200000000000003,30.64Z"/><path d="M60.32,35.82C58.81,36.47,56.43,38,56,37.6C54.23,35.92,53.09,33.6,51.45,31.11C56.190000000000005,29.64,57.84,32.75,60.17,34.41Z"/></g></g></svg>

<svg xmlns="http://www.w3.org/2000/svg" viewBox="0 0 80.25 119.84"><defs><style>.cls-1{fill:#fff;stroke:#000;}</style></defs><title>Dominator_Black</title><g id="Слой_2" data-name="Слой 2"><g id="Слой_1-2" data-name="Слой 1"><path class="cls-1" d="M66.67,115.87c-2.81,1.91-5.52,1.79-8.56.61A108.91,108.91,0,0,0,44.4,112a16.7,16.7,0,0,0-8.19-.07c-7.15,2-14.14,4.62-22.1,7.29L13,109.89c-2,0-4.28-.16-6.48,0-5.64.47-7.13-1.32-5.11-6.44Q11,79,20.7,54.51c.67-1.7,1.19-3.46,1.76-5.19,1.57-4.8,1.24-5.94-2.59-9-7.1-5.71-7.11-5.73.23-10.85C22,28.12,24,27,26.76,25.34c-1-4.82-2.13-9.95-3.26-15.08-.18-.81-.49-1.58-.73-2.38-2-6.6-1.33-7.42,5.68-7.38,7.67,0,15.33,0,23,0,6,0,6.79,1,5.26,6.7-1.13,4.16-2.28,8.31-3.25,12.51a47,47,0,0,0-.65,5.67c3.8,2.46,7.26,4.68,10.71,6.93,2.29,1.49,2.17,3.13.21,4.81-.5.43-1.09.77-1.61,1.18-6.36,5-6.49,5.59-3.42,13.44q10.17,26,20.28,51.92c1.88,4.83.36,6.65-4.86,6.38-2.24-.11-4.49,0-6.93,0Zm-4.83-1.54c-.56-3.94-.78-6.87-1.4-9.71-1.92-8.75-4-17.45-6-26.18-2.44-10.67-4.79-21.37-7.35-32-.28-1.16-1.72-2-2.62-3-.67,1.2-1.71,2.34-1.93,3.62a42.22,42.22,0,0,0-.18,6.47q-.22,24.44-.45,48.87c0,2.21-.22,4.57,2.27,5.54C49.68,110,55.25,111.94,61.84,114.33ZM38.67,43.54l-2.26-.3c-4,11.41-6.24,23.32-9.34,35s-6.46,23.28-8.48,36.06c6.31-2.23,11.59-4.11,16.88-6,2.86-1,3.41-3.13,3.43-5.89.11-18,.36-35.9.5-53.84A33.72,33.72,0,0,0,38.67,43.54ZM4.76,105.44c9.47,2.84,11.73,1.48,13.86-7C22.47,83,26.54,67.57,30.47,52.15c.7-2.77,1.11-5.62,1.69-8.6-3.76-.5-4.29,1.63-5.09,3.67-7,17.9-14,35.78-21,53.68C5.51,102.37,5.19,103.93,4.76,105.44ZM25.44,4.34c2,7.91,3.92,15.16,5.84,22.56h8.61c8,0,8.14,0,10.26-7.6,1.31-4.72,2.28-9.52,3.56-15ZM52.05,44l-1.54.32a47.85,47.85,0,0,0,.6,5.51c1.63,7.45,3.39,14.88,5.09,22.32,2.34,10.18,4.59,20.38,7.08,30.53C63.62,104,65,106,66.1,106.16c3,.48,6,.12,10.27.09C68,84.67,60,64.32,52.05,44ZM28.3,39.5H51.38c-2.19-9-3-9.52-15.14-9.25C31.41,30.35,29.7,32.26,28.3,39.5Zm-5.05-.37,4.95-8.49c-4.8-.82-6.8,1.87-9.42,4.26Zm37.07-3.31-.19-1.41c-2.33-1.66-4-4.77-8.72-3.3,1.64,2.47,2.78,4.81,4.55,6.49C56.43,38,58.81,36.47,60.32,35.82Z"/><path d="M61.84,114.33c-6.59-2.39-12.16-4.31-17.66-6.45-2.49-1-2.29-3.33-2.27-5.54q.26-24.43.45-48.87A42.22,42.22,0,0,1,42.54,47c.22-1.28,1.26-2.42,1.93-3.62.9,1,2.34,1.89,2.62,3,2.56,10.64,4.91,21.34,7.35,32,2,8.73,4.08,17.43,6,26.18C61.06,107.46,61.28,110.39,61.84,114.33Z"/><path d="M38.67,43.54a33.72,33.72,0,0,1,.73,5.06c-.14,17.94-.39,35.89-.5,53.84,0,2.76-.57,4.89-3.43,5.89-5.29,1.85-10.57,3.73-16.88,6,2-12.78,5.38-24.39,8.48-36.06s5.37-23.58,9.34-35Z"/><path d="M4.76,105.44c.43-1.51.75-3.07,1.32-4.54,7-17.9,14-35.78,21-53.68.8-2,1.33-4.17,5.09-3.67-.58,3-1,5.83-1.69,8.6-3.93,15.42-8,30.81-11.85,46.24C16.49,106.92,14.23,108.28,4.76,105.44Z"/><path d="M25.44,4.34H53.71c-1.28,5.44-2.25,10.24-3.56,15-2.12,7.62-2.21,7.6-10.26,7.6H31.28C29.36,19.5,27.49,12.25,25.44,4.34Z"/><path d="M52.05,44C60,64.32,68,84.67,76.37,106.25c-4.24,0-7.32.39-10.27-.09C65,106,63.62,104,63.28,102.64c-2.49-10.15-4.74-20.35-7.08-30.53-1.7-7.44-3.46-14.87-5.09-22.32a47.85,47.85,0,0,1-.6-5.51Z"/><path d="M28.3,39.5c1.4-7.24,3.11-9.15,7.94-9.25,12.11-.27,12.95.22,15.14,9.25Z"/><path d="M23.25,39.13,18.78,34.9c2.62-2.39,4.62-5.08,9.42-4.26Z"/><path d="M60.32,35.82C58.81,36.47,56.43,38,56,37.6c-1.77-1.68-2.91-4-4.55-6.49,4.74-1.47,6.39,1.64,8.72,3.3Z"/></g></g></svg>
